icons/lines/ranking.svg

<svg xmlns="http://www.w3.org/2000/svg" width="24" height="24" viewBox="0 0 24 24" fill="none" stroke="currentColor" stroke-width="2" stroke-linecap="round" stroke-linejoin="round" >
  <path d="M13.3 8.10998L14.62 10.75C14.8 11.11 15.28 11.47 15.68 11.53L18.07 11.93C19.6 12.19 19.96 13.29 18.86 14.39L17 16.25C16.69 16.56 16.51 17.17 16.61 17.61L17.14 19.92C17.56 21.74 16.59 22.45 14.98 21.5L12.74 20.17C12.33 19.93 11.67 19.93 11.26 20.17L9.01996 21.5C7.40996 22.45 6.43995 21.74 6.85995 19.92L7.38998 17.61C7.48998 17.18 7.30997 16.57 6.99997 16.25L5.13998 14.39C4.03998 13.29 4.39996 12.18 5.92996 11.93L8.31997 11.53C8.71997 11.46 9.19997 11.11 9.37997 10.75L10.7 8.10998C11.41 6.67998 12.59 6.67998 13.3 8.10998Z"/>
  <path d="M6 9V2"/>
  <path d="M18 9V2"/>
  <path d="M12 4V2"/>
  </svg>

<svg xmlns="http://www.w3.org/2000/svg" width="24" height="24" viewBox="0 0 24 24" fill="none" stroke="currentColor" stroke-width="2" stroke-linecap="round" stroke-linejoin="round">
  <path d="M12 4V2" />
  <path d="M14.62 10.75c.18.36.66.72 1.06.78l2.39.4c1.53.26 1.89 1.36.79 2.46L17 16.25c-.31.31-.49.92-.39 1.36l.53 2.31c.42 1.82-.55 2.53-2.16 1.58l-2.24-1.33a1.5 1.5 0 0 0-1.48 0L9.02 21.5c-1.61.95-2.58.24-2.16-1.58l.53-2.31c.1-.43-.08-1.04-.39-1.36l-1.86-1.86c-1.1-1.1-.74-2.21.79-2.46l2.39-.4c.4-.07.88-.42 1.06-.78l1.32-2.64c.71-1.43 1.89-1.43 2.6 0z" />
  <path d="M18 9V2" />
  <path d="M6 9V2" />
</svg>
